!! 00000] TT[00
!! NN
!!!OTL: Siji hua
!!!ARE: Asia, China,ÿNingxia, Haiyuan
!! Ethnic Group: Han
!! I, 165
!!!SCT: C0043
!!!YEM: Copyright 1995, estate of Helmut Schaffrath.
**kern
*ICvox
*Ivox
*M2/4
*k[b-]
*F:
{4cc
8ff
8dd
=1
4cc
8a
8g
=2
4cc
8a
8cc
=3
16a
16g
8f
4g}
=4
{4cc
4cc
=5
4cc
4cc
=6
8cc
8a
8cc
8dd
=7
16a
16g
8f
4g}
=8
{8f
4f
8f
=9
4dd
4cc
=10
4a
8a
8cc
=11
4a
8g
8f}
=12
{8.a
16g
8f
8a
=13
16g
16f
8d
4c}
=14
{4cc
4e
=15
4cc
4e
=16
8cc
8a
8cc
8dd
=17
4a
8g
8f}
=18
{8.a
16g
8f
8a
=19
16g
16f
16d
16f
4c}
=20
{8dd
16dd
16cc
8dd
16dd
16cc
=21
8dd
8a
4a}
=22
{8dd
8cc
8dd
8cc
=23
8a
8cc
4a}
=24
{8cc
16a
16cc
4a
=25
16dd
16cc
8a
4cc}
=26
{8dd
8cc
8dd
8cc
=27
8dd
8a
4a}
=28
{8.a
16cc
8a
8g
=29
8cc
4f
8g}
=30
{8.a
16cc
8a
8g
=31
8cc
4f
8g}
=32
{4cc
4cc
=33
16a
16g
8f
4g
=34
8.cc
16a
8cc
8dd
=35
4a
8g
8f}
=36
{8.a
16g
8f
8a
=37
16g
16f
16d
16f
4c}
==
!!!AGN: Xiaodiao. Xin minge
!! neues Volkslied
!!!ONB: ESAC (Essen Associative Code) Database: CHINA
!!!AMT: simple duple
!!!AIN: vox
!!!EED: Helmut Schaffrath
!!!EEV: 1.0
*-
